!!!CDT:
!!!PTL: Il sesto libro de madrigali a sei voci
!!!PPP: Venice
!!!PPR: Angelo Gardano
!!!PDT: 1591
!!!PUB-format:
!!!RISM: M 3384
!!!rime: 47
!!!AGN: Madrigal
!!!SCT: Trm0047o
!!!SCA: Trm0047o
!!!original-voices: 6
!!!extant-voices: 2
!!!complete: N
!!!final: F
!!!COM: Monte, Filippo di
!!!OTL: Non è questa la mano
**kern	**text	**kern	**text
*part2	*part2	*part1	*part1
*staff2	*staff2	*staff1	*staff1
*I"Quinto	*	*I"Alto	*
*I'V	*	*I'A	*
*oclefC2	*	*oclefC2	*
*clefG2	*	*clefG2	*
*k[b-]	*	*k[b-]	*
*F:	*	*F:	*
*omet(C)	*	*omet(C)	*
*M4/2	*	*M4/2	*
=1	=1	=1	=1
4r	.	0r	.
4f	Non	.	.
4g	è	.	.
4.a	que-	.	.
8b-y	-sta	.	.
4a	la	.	.
2g	ma-	.	.
=2	=2	=2	=2
4a	-no	0r	.
4a	Che	.	.
4.b-y	tan-	.	.
8a	-te e	.	.
4a	sì	.	.
4g	mor-	.	.
2f	-ta-	.	.
=3	=3	=3	=3
2g	-li	0r	.
2r	.	.	.
2r	.	.	.
8g	Av-	.	.
8a	-ven-	.	.
4b-y	-tò	.	.
=4	=4	=4	=4
4a	nel	0r	.
4g	mio	.	.
4g	cor	.	.
4f#X	fiam-	.	.
4g	-mel-	.	.
4e	-le e	.	.
2d	stra-	.	.
=5	=5	=5	=5
2e	-li?	2r	.
2r	.	4a	Ec-
.	.	8a	-co
.	.	8g	che
2r	.	4f	pur
.	.	4f	si
4d	Ec-	2b-y	tro-
8d	-co	.	.
8e	che	.	.
=6	=6	=6	=6
4f	pur	2a	-va
4f	si	.	.
2d	tro-	4f	Fra
.	.	8f	le
.	.	8g	mie
2c	-va	4a	man
.	.	4g	ri-
2r	.	[2cc	-stret-
=7	=7	=7	=7
4f	Fra	4cc]	.
8f	le	4f	-ta
8g	mie	.	.
4a	man	2r	.
4a	ri-	.	.
2a	-stret-	2r	.
2f#X	-ta	4r	.
.	.	4a	Né
=8	=8	=8	=8
4r	.	4.a	for-
4a	Né	.	.
.	.	8g	-za od
4.a	for-	4f	ar-
.	.	4e	-te
8g	-za od	.	.
4b-y	ar-	2r	.
4a	-te	.	.
8f	per	4.a	per
8g	fug-	.	.
8a	-gir	.	.
8b-y	le	8f	fug-
=9	=9	=9	=9
1cc	gio-	4g	-gir
.	.	4a	le
.	.	2g	gio-
1cc	-va,	2a	-va,
.	.	4r	.
.	.	4f	Né
=10	=10	=10	=10
0r	.	4.f	tien
.	.	8g	fa-
.	.	4a	-ce o
.	.	4a	sa-
.	.	2a	-et-
.	.	2f#X	-ta
=11	=11	=11	=11
4cc	Che	4g	Che
4cc	da	4g	da
2a	me	2c	me
4a	la	4fnXi	la
4f	di-	4d	di-
2g	-fen-	4g	-fen-
.	.	[4c	-da.
=12	=12	=12	=12
4a	-da.	4c]	.
2f	Giu-	2cc	Giu-
4g	-sto è	4b-y	-sto è
2d	ben	2a	ben
4e	ch'io	4g	ch'io
4f	ne	4f	ne
=13	=13	=13	=13
2c	pren-	2e	pren-
4c	-da,	4e	-da,
2cc	<Giu-	2e	<Giu-
4a	-sto è	4d	-sto è
2a	ben	2c#X	ben
=14	=14	=14	=14
4.g	ch'io	4d	ch'io
.	.	4e	ne
8cc	ne	.	.
2bnX	pren-	2d	pren-
4bnXi	-da,>	4d	-da,>
4cc	A-	4f	A-
4f	-mor,	4f	-mor,
[4g	qual-	[4b-y	qual-
=15	=15	=15	=15
8g]	.	8b-]	.
8g	-che	8b-y	-che
4d	ven-	4g	ven-
2e	-det-	2a	-det-
2e	-ta,	2a	-ta,
[2f	Giu-	4r	.
.	.	[4cc	Giu-
=16	=16	=16	=16
4f]	.	4cc]	.
4g	-sto è	4b-y	-sto è
2d	ben	2a	ben
4e	ch'io	4g	ch'io
4f	ne	4cc	ne
2c	pren-	2cc	pren-
=17	=17	=17	=17
4c	-da,	4cc	-da,
4d	A-	4a	A-
4e	-mor,	4g	-mor,
4.c	qual-	4.g	qual-
8c	-che	8g	-che
4e-X	ven-	4g	ven-
2d	-det-	2f#X	-det-
=18	=18	=18	=18
2d	-ta,	2f#i	-ta,
2enXi	E	2g	E
2f	se	2a	se
[2d	pia-	[2fnXi	pia-
=19	=19	=19	=19
4d]	.	4f]	.
4d	-ghe	4f	-ghe
2c	mi	2f	mi
4c	diè	4g	diè
4.c	ba-	4.f	ba-
8c	-ci	8g	-ci
4f	le	4a	le
=20	=20	=20	=20
2d	ren-	2g	ren-
4e	-da,	4g	-da,
4.c	ba-	4.f	ba-
8c	-ci	8c	-ci
4c	le	4f	le
2c	ren-	2g	ren-
=21	=21	=21	=21
4c	-da,	4a	-da,
2cc	Giu-	2f	Giu-
4b-y	-sto è	4g	-sto è
2a	ben	2d	ben
4g	ch'io	4e	ch'io
4cc	ne	4f	ne
=22	=22	=22	=22
2cc	pren-	2c	pren-
4cc	-da,	4c	-da,
4a	A-	4d	A-
4g	-mor,	4e-X	-mor,
4.g	qual-	4.c	qual-
8g	-che	8c	-che
4g	ven-	4e-X	ven-
=23	=23	=23	=23
2f#X	-det-	2d	-det-
4f#i	-ta,	4d	-ta,
4g	E	4c	E
2a	se	2A	se
[2fnXi	pia-	[2d	pia-
=24	=24	=24	=24
4f]	.	4d]	.
4f	-ghe	4d	-ghe
2f	mi	2c	mi
4g	diè	4c	diè
4.f	ba-	4.c	ba-
8g	-ci	8c	-ci
4a	le	4f	le
=25	=25	=25	=25
2g	ren-	2d	ren-
4g	-da,	4e	-da,
4.f	ba-	4.c	ba-
8c	-ci	8c	-ci
4f	le	4c	le
2g	ren-	2c	ren-
=26	=26	=26	=26
0al	-da.	0cl	-da.
==	==	==	==
*-	*-	*-	*-
!!!system-decoration: [*]
!!!RDF**kern: i = editorial accidental
!!!RDF**kern: l = terminal long
!!!ENC: Emiliano Ricciardi
!!!END: 2019/08/08
!!!EED: Ricciardi, Emiliano
!!!EEV: 2019/08/08
!!!YEC: Copyright 2018 Emiliano Ricciardi, All Rights Reserved
!!!ONB: Translated from MusicXML on 2019/08/08 and edited by Craig Stuart Sapp
!!@@BEGIN:	VERSEDATA
!!@SOLERTI:	47
!!@CATALOGNUM:	Trm0047
!!@LAST_MODIFIED: 2020/07/12
!!@TITLE:		Non &egrave; questa la mano
!!@GENRE:		madrigale/ballata
!!@MANUSRC:	Amz, Brn, C, E<sub>1</sub>, F<sub>2</sub>, I<sub>3</sub>, M<sub>7</sub>, P<sub>4</sub>, Tr<sub>2</sub>, V<sub>8</sub>, V<sub>13/E1</sub>
!!@PRINTSRC:	8, 9, 11, 12, 13, 15, 20, 24, 29, 33, 67, 145
!!@@BEGIN:	VERSES
!!@ABOUTIT:	Ballando con la sua donna desidera di fare amorosa vendetta de la sua mano ch’egli teneva stretta.
!!@ABOUTEN:	Dancing with his lady, he desires to take amorous revenge on the hand he held tight.
!!@EDITOR:	Solerti, Angelo
!!@EDITION_TITLE: Le Rime di Torquato Tasso
!!@EDITION_LOC:	Bologna
!!@EDITION_PUB:	Romagnoli-Dall’Acqua
!!@EDITION_DATE:  1898-1902
!!@EDITION_VOL:	2
!!@EDITION_PAGE:  71
!!@TRANSLATOR:	Emiliano Ricciardi and Amyrose McCue Gill
!!@VERSE:
!!	Non &egrave; questa la mano
!!	Che tante e s&igrave; mortali
!!	Avvent&ograve; nel mio cor fiammelle e strali?
!!	Ecco che pur si trova
!!	Fra le mie man ristretta
!!	N&eacute; forza od arte per fuggir le giova,
!!	N&eacute; tien face o saetta
!!	Che da me la difenda.
!!	Giusto &egrave; ben ch'io ne prenda,
!!	Amor, qualche vendetta,
!!	E se piaghe mi di&egrave; baci le renda.
!!@TVERSE:
!!	Is this not the hand
!!	That so many and truly fatal
!!	Flames and arrows hurled at my heart?
!!	Yet here it is, to be found
!!	Held fast between my hands,
!!	Neither strength nor craft can help it escape,
!!	Nor does it hold a torch or a spear
!!	To defend her against me.
!!	It is just that I take,
!!	Love, some kind of revenge,
!!	And if she gave me wounds, may I give her kisses.
!!@@END:		VERSES
!!@OTHER_CRIT_ED:   Torquato Tasso, <i>Rime d’amore (secondo il codice
!!		Chigiano L VIII 302)</i>, eds. Franco Gavazzeni and
!!		Vercingetorige Martignone, vol. 4 of <i>Edizione
!!		Nazionale delle opere di Torquato Tasso</i>
!!		(Alessandria: Edizioni Dell’Orso, 2004), 34.
!!@ATTRIBUTION_ABOUT:	Secure
!!		<br>
!!		Among other authoritative sources (see Literary
!!		Sources), this poem appears in the autograph Chigiano
!!		L.VIII.302 (Biblioteca Vaticana, Rome), compiled
!!		around 1584&ndash;85.
!!@DATING:	Before 1579
!!		<br>
!!		Although Solerti dates this poem to the early 1560s,
!!		there is no hard evidence to support this dating.
!!		The earliest written testimony of “Non è questa la
!!		mano” is Benedetto Pallavicino’s musical setting,
!!		published in 1579 (Trm0047a).
!!@DEDICATEE:	Bendidio, Lucrezia
!!@DEDICATEE_INFO:
!!		In the autograph Chigiano L.VIII.302 (Biblioteca
!!		Vaticana, Rome), this poem appears among those
!!		addressed to Tasso’s <i>primo amore</i> (first love),
!!		identified as the Ferrarese singer and noblewoman
!!		<a target="_new" href="http://www.treccani.it/enciclopedia/lucrezia-bendidio_%28Dizionario-Biografico%29">Lucrezia Bendidio</a>
!!		(1547&ndash;after 1584). The poem itself, however, does not mention Lucrezia.
!!		As [Anthony Newcomb] {footnote: Anthony Newcomb, “The Ballata and the ‘Free’ Madrigal in
!!		the Second Half of the Sixteenth Century,” Journal
!!		of the American Musicological Society, vol. 63, no.
!!		3 (Fall 2010): 433&ndash;34.} has pointed out, this poem belongs to the
!!		hybrid genre of the ballata-madrigale.  More
!!		specifically, the opening tercet recalls the
!!		<i>ripresa</i> of a ballata, the central section
!!		the <i>piedi</i> (two pairs of <i>settenarii</i>
!!		separated by an <i>endecasillabo</i>), and the final
!!		tercet the <i>volta</i>. The poem is extremely rich
!!		of references to <i>topoi</i> that resonated with
!!		the culture of the time, such as courtly dance and
!!		the female hand–the latter is especially common in
!!		late sixteenth-century lyric poetry (see <i>Rime</i>
!!		315, 571, and 862). Counting 23 settings (see Musical
!!		Settings), “Non è questa la mano” is second only
!!		to “Ardi e gela a tua voglia” (<i>Rime</i> 418),
!!		whose musical fortune, however, is tied to that of
!!		Guarini’s <i>proposta</i> “Ardo sì, ma non t’amo.”
!!@@END:		VERSEDATA
!!@@BEGIN:	SETTING
!!@CATALOGNUM:	Trm0047o
!!@RIMETITLE:	Non è questa la mano
!!@SOLERTI:	47
!!@COMPOSER:	Monte, Filippo di
!!@PRINCEPSTITLE:	Il sesto libro de madrigali a sei voci
!!@PRINCEPSLOC:	Venetia
!!@NORMLOC:	Venice
!!@NORMPUB:	Angelo Gardano
!!@NORMPUBSHORT:	Gardano
!!@PRINCEPSPUB:	Gardano
!!@PRINCEPSYEAR:	1591
!!@PRINCEPSRISM:	M 3384
!!@REPRINTS:	
!!@OVOICES:	6
!!@EXTANTVOICES:	2
!!@PARTBOOKS:	
!!@EXTPARTBOOKS:	
!!@OCLEFS:	C2,C2
!!@OMENSURATION:	C
!!@OKEYSIG:	b-
!!@FINAL:	F
!!@TIMPEDITOR:	Ricciardi, Emiliano
!!@NOTE:		
!!@@END:		SETTING
